!!!!SEGMENT: pl-cz--ii-87--034_hepner--msza-st-benedicio.krn
!!!cenid: 18xx:1197
!!!COM: Hepner
!!!COM-rismID: pe30021002
!!!CDT: ~1800-~1899
!!!CNT:
!!!OPR: Msza St.
!!!OTL: Benedicio
!!!OMV: 010
!!!PDT: 1888
!!!AGN: Sacred; Mass
!!!SMS-siglum: PL-CZ
!!!SMS-shelfmark: II-87
!!!SMS-shelfwork: 004-010 M
!!!SMS-variant:
!!!SMS-altvar:
!!!NIFC-rismSourceID: 300033223
!!!NIFC-rismChildID: 300033227
!!!NIFC-islandoraID: pl-cz:33881
!!!URL-pdf-islandora: https://repozytorium.nifc.pl/islandora/object/pl-cz%3A33881/datastream/PDF/view
!!!URL-scan: https://polish.musicsources.pl/pl/lokalizacje/galeria/rekopisy/6814/1 @EN{Scan on Polish Music Sources Website} @PL{Skany w portalu Dziedzictwo Muzyki Polskiej w otwartym dostępie}
!!!IIIF:
!!!ONB-nifc: UWAGA: części Mszy: Kirie, Gloria, Graduale, Credo, Offertorium, Sanctus, Benedictus, Agnus, Communio, Benedicio
!!!OMD: Allegro vivo
!!!AIN: 1 organ
!!!key: C
**kern	**text	**kern	**text
*part1	*part1	*part1	*part1
*staff2	*staff2	*staff1	*staff1
*I"[Organo]	*	*	*
*Iorgan	*	*	*
*ICklav	*	*	*
*clefF4	*	*clefG2	*
*k[]	*	*k[]	*
*C:	*	*C:	*
*M4/4	*	*M4/4	*
*met(c)	*	*met(c)	*
=1	=1	=1	=1
32qqGG/LLL	.	(<32qqG/LLL	.
32qqAA/	.	32qqA/	.
32qqBB/JJJ	.	32qqB/JJJ	.
1C	.	8c/)	.
.	.	8r	.
.	.	4f 4A</	.
.	.	4e 4G</	.
.	.	4d 4F</	.
=2	=2	=2	=2
(>32qqGG\LLL	.	.	.
32qqAA\	.	.	.
32qqBB\JJJ	.	.	.
1C)	.	8c/	.
.	.	8r	.
.	.	4a 4f/	.
.	.	4g 4e/	.
.	.	4f 4d/	.
=3	=3	=3	=3
(32qqGG\LLL	.	.	.
32qqAA\	.	.	.
32qqBB\JJJ	.	.	.
4C/)	.	8e 8c/	.
.	.	8r	.
8.EL 8.EE/	.	8.ccL 8.g/	.
!LO:SIC:v:n=2:s=16EE/	!	!	!
16EJk 16FF/	.	16ccJk 16g/	.
8.FL 8.FF/	.	8.ddL 8.g 8.f/	.
16FJk 16FF/	.	16ddJk 16g 16f/	.
8.GL 8.GG/	.	8.bL 8.g 8.f 8.d/	.
16GJk 16GG/	.	16bJk 16g 16f 16d/	.
=	=	=	=
8C/	.	8cc 8g 8e/	.
8r	.	8r	.
8.cL 8.C\	.	8.ccL 8.g 8.e/	.
16cJk 16C\	.	16ccJk 16g 16e/	.
8c\	.	8cc 8g 8e/	.
8r	.	8r	.
!!LO:LB:g=original
=4||	=4||	=4||	=4||
4r	.	8eL 8c/	Już
.	.	8fJ 8d/	o-
=5	=5	=5	=5
4r	.	4g 4e/	-fia-
4c 4C\	.	4g 4e/	-ra
4c 4C\	.	4a 4f/	do-
4c 4C\	.	4cc 4g 4f 4d/	-peł-
=6	=6	=6	=6
4c 4C\	.	4cc 4g 4e/	-nio-
4c 4C\	.	4cc 4g 4e/	-na
4G\	.	4dd 4b 4g\	swię-
4G\	.	4dd 4b 4g\	-te
=7	=7	=7	=7
4C\	.	4ee 4cc 4g\	dzie-
4c\	.	4ee 4cc 4g\	-ło
4B\	.	4ff 4dd 4g\	nie-
4B\	.	4ff 4dd 4g\	-bios
=8	=8	=8	=8
4G\	.	4ee 4cc 4g\	cu-
4GG/	.	4dd 4b 4g\	-du
4G\	.	4r	.
4r	.	(8eeL 8cc\	Bóg
.	.	8ddJ 8b\)	.
=9	=9	=9	=9
4r	.	4cc 4a\	na-
4F#X\	.	4dd 4b\	-sza
4F#\	.	4cc 4a\	mi-
4F#\	.	4dd 4a\	-łosc
=10	=10	=10	=10
2G\	.	4b 4g 4d/	słu-
.	.	2b 2g 2d/	-chał
2Fn\	.	.	.
.	.	4b 4g 4d/	.
!!LO:PB:g=original
=11	=11	=11	=11
2G\	.	2cc 2g 2e\	.
2F#X\	.	2cc 2g 2e\	lu-
=12	=12	=12	=12
!LO:TX:t=P:problem=mixed beam	!	!	!
8G\L	.	2b 2g 2e/	-du
8GG/	.	.	.
8BB/	.	.	.
8D/J	.	.	.
!LO:N:vis=4	!	!	!
8G\	.	2r	.
8r	.	.	.
8GL 8GG\	Chyl-	.	.
8GJ 8GG\	-my	.	.
=13	=13	=13	=13
2A-X 2AA-X\	czo-	2r	.
!LO:SIC:v:n=2:s=8GG/	!	!	!
8G 8AA-/	-ło	4r	.
8r	.	.	.
8fL 8d 8B\	.	8g/L	Chyl-
8fJ 8d 8B\	.	8g/J	-my
=14	=14	=14	=14
2d 2B\	.	2g-X/	czo-
8f 8d 8B\	.	8f/	-ło
8r	.	8r	.
8GL 8GG/	Wiel-	4r	.
8GJ 8GG/	-bmy	.	.
=15	=15	=15	=15
2A-X 2AA-X\	pa-	2r	.
8G 8GG/	-na	4r	.
8r	.	.	.
4r	.	8g/L	Wielb-
.	.	8g/J	-my
=16	=16	=16	=16
2d 2B\	.	2a-X/	pa-
8d 8B\	.	8g/	-na
8r	.	8r	.
8EL 8C\	.	4r	.
8FJ 8D\	.	.	.
!!LO:LB:g=original
=17	=17	=17	=17
4G 4E\	.	4r	.
4G 4E\	.	4cc 4c/	na-
4G 4E\	.	4.cc 4.c/	-sza
4G 4E\	.	.	.
.	.	8b-X/	wdzięcz-
=18	=18	=18	=18
!LO:TX:t=P:problem=mixed beam	!	!	!
8F\L	.	2a 2c/	-nosc
8FF/	.	.	.
8AA/	.	.	.
8C/J	.	.	.
8F\	.	8a 8c/	sławi
8r	.	8r	.
4F\	.	4a 4c/	oto
=19	=19	=19	=19
4F\	.	4g 4c/	przez
4C#X\	.	4g 4e 4A/	swe-
4D\	.	4f 4d 4A/	-go
4BB/	.	4f 4d 4G/	ka-
=20	=20	=20	=20
8C/L	.	2e 2c/	-płana
8CC/	.	.	.
8EE/	.	.	.
8GG/J	.	.	.
4r	.	4r	.
*	*above	*	*
8EL 8C\	Dzie-	4r	.
8FJ 8D\	.	.	.
=21	=21	=21	=21
4G 4E\	-ciom	4r	.
4G 4E\	.	4cc 4c/	swoim
4G 4E\	.	4.cc 4.c/	bło-
4G 4E\	.	.	.
.	.	8b/	-go-
!!LO:LB:g=original
=22	=22	=22	=22
!LO:TX:t=P:problem=mixed beam	!	!	!
8F\L	.	2.a 2.c/	-sławi
8FF/	.	.	.
8GG/	.	.	.
8C/J	.	.	.
8D\	.	.	.
8r	.	.	.
4D\	.	4a 4c/	oto
=23	=23	=23	=23
4E\	.	4g 4c/	przez
8C\L	.	4cc 4g 4e\	swe-
8E\J	.	.	.
4G\	.	4cc 4g 4e\	-go
4G\	.	4b 4f 4d/	ka-
=24	=24	=24	=24
2c 2C\	.	2cc 2g 2e/	-płana
4B 4BB\	.	4ff 4dd 4g\	Dzie-
4B 4BB\	.	4ff 4dd 4g\	-ciom
=25	=25	=25	=25
4c 4C\	.	4ee 4cc 4g\	swo-
4c 4C\	.	4cc 4g 4e/	-im
4G\	.	4b 4g 4d/	bło-
4G\	.	4b 4g 4d/	-go-
=26	=26	=26	=26
4c 4C\	.	4cc 4g 4e/	-sła-
4c 4C\	.	4cc 4g 4e/	-wi
4B\	.	4ff 4dd 4g\	Dzie-
4B\	.	4ff 4dd 4g\	-ciom
!!LO:LB:g=original
=27	=27	=27	=27
4c 4C\	.	4ee 4cc 4g\	swo-
4E\	.	4cc 4g 4c/	-im
4F\	.	4cc 4a 4c/	bło-
4F#X\	.	4cc 4a 4e-X/	-go-
=28	=28	=28	=28
1G 1GG	.	2cc 2g 2en/	-sławi.
.	.	2b 2g 2f 2d/	.
=29	=29	=29	=29
4c 4C\	.	4cc 4g 4e/	.
4r	.	8.g/L	.
.	.	16g/Jk	.
4r	.	4g/	.
4G 4GG\	.	4b 4g 4f 4d/	.
=30	=30	=30	=30
4c 4C\	.	4cc 4g 4e/	.
4r	.	8.g/L	.
.	.	16g/Jk	.
4r	.	4g/	.
4G 4GG/	.	4b 4g 4f 4d/	.
=31	=31	=31	=31
8cL 8C\	.	4cc 4g 4e\	.
8E\	.	.	.
8G\	.	4b 4g 4f 4d/	.
8GG\J	.	.	.
8C\L	.	4cc 4g 4e\	.
8E\	.	.	.
8G\	.	4b 4g 4f 4d/	.
8GG\J	.	.	.
!!LO:LB:g=original
=32	=32	=32	=32
!LO:TX:a:B:t=Finis Ad Majorem de Glorijam	!	!	!
1G 1E 1C 1CC	.	1c<	.
==	==	==	==
*-	*-	*-	*-
!!!system-decoration: (s1,s2)
!!!RDF**kern: > = above
!!!RDF**kern: < = below
!!!ENC: Tomasz Grochalski
!!!END: 2020-11-08
!!!ENC: Andrzej Kubiczek
!!!END: 2021-11-16
!!!YEC: Copyright 2022 Narodowy Instytut Fryderyka Chopina (https://polishscores.org)
!!!YEM: License CC-BY-4.0 (https://creativecommons.org/licenses/by/4.0)
